!!!COM: Bach, Johann Sebastian
!!!CDT: 1685/3//-1750/7/28/
!!!OTL@@DE: Meinen Jesum lass ich nicht
!!!AGN: 4-Part Chorale
!!!SCT: BH 299
!!!SCT: BWV 380
**harm	**root	**kern	**kern	**kern	**kern
!	!	!bass	!tenor	!alto	!soprno
*	*Iorgan	*Iorgan	*Iorgan	*Iorgan	*Iorgan
*M4/4	*M4/4	*M4/4	*M4/4	*M4/4	*M4/4
*met(c)	*met(c)	*met(c)	*met(c)	*met(c)	*met(c)
*MM60	*MM60	*MM60	*MM60	*MM60	*MM60
*k[b-e-a-d-g-c-f-]	*k[b-e-a-d-g-c-f-]	*k[b-e-a-d-g-c-f-]	*k[b-e-a-d-g-c-f-]	*k[b-e-a-d-g-c-f-]	*k[b-e-a-d-g-c-f-]
*C-:	*C-:	*C-:	*C-:	*C-:	*C-:
=1-	=1-	=1-	=1-	=1-	=1-
I	4EE-	8C-	4c-	4e-	4g-
.	.	8D-	.	.	.
Ib	4EE-	8E-	4c-	4e-	4g-
.	.	8C-	.	.	.
IV	4AA-	8F-	4A-	4c-	4a-
.	.	8E-	.	.	.
iib	4FF	8F-	4d-	4f-	4a-
.	.	8D-	.	.	.
=2	=2	=2	=2	=2	=2
V7	4BB-	4G-	8d-	8f-	4b-
.	.	.	8c-	8e-	.
V7	4BB-	4GG-	8d-	4f-	8b-
.	.	.	8B-	.	16cc-
.	.	.	.	.	16dd-
I;	2EE-;	2C-;	2G-;	2e-;	2cc-;
=3	=3	=3	=3	=3	=3
V	4BB-	8GG-	8B-	4g-	4dd-
.	.	8AA-	8c-	.	.
Vb	4BB-	8BB-	8d-	8g-	4dd-
.	.	8GG-	8B-	8f-	.
vi	4CC	8AA-	8B-	4.e-	4cc-
.	.	8BB-	16A-	.	.
.	.	.	16G	.	.
vi	8CC	8C-	4A-	.	4cc-
V7/V	8FF	8D-	.	8f	.
=4	=4	=4	=4	=4	=4
iii	4GG	8E-	4G-	8g-	4b-
.	.	8D-	.	8f	.
I	8EE-	8C-	4G-	8e-	8a-
vi7	8CC	8AA-	.	8c-	16b-
.	.	.	.	.	16cc-
V/V	4FF	4D-	8G-	4.d-	2a-
.	.	.	8E-	.	.
V/V	4FF	4DD-	4F	.	.
.	.	.	.	8c-	.
=5	=5	=5	=5	=5	=5
V;	2BB-;	2GG-;	2D-;	2B-;	2g-;
I	4EE-	8C-	8E-	4c-	4g-
.	.	8D-	8F-y	.	.
Ib	4EE-	8E-	8G-	4c-	4g-
.	.	8C-	8E-	.	.
=6	=6	=6	=6	=6	=6
IV	4AA-	8F-	8F-	4c-	4a-
.	.	8E-	8G-	.	.
ii	4FF	8D-	4A-	4f-	4a-
.	.	8C-	.	.	.
V7b	8BB-	8BB-	8D-	8f-	4g-
viio/ii	8EE	8C	8E-	8e-	.
ii	4FF	4D-	8F-	4d-	8f-
.	.	.	8G-	.	8e-
!!linebreak: 2
=7	=7	=7	=7	=7	=7
VI;	2CC;	2AA-;	2A-;	2c;	2e-;
viiob/II	4EE	8E-	8G-	8c	4g-
.	.	8D-	8F-	8d-	.
V7b/II	4CC	8C	4E-	8e-	4g-
.	.	8AA-	.	8c	.
=8	=8	=8	=8	=8	=8
ii	4FF	8D-	4F-	4A-	4f-
.	.	8C-y	.	.	.
V7b	4BB-	8BB-	4G-	8d-	4f-
.	.	8GG-	.	8B-	.
I	4EE-	8C-	4G-	4c-	4e-
.	.	8E-	.	.	.
ii7b	8FF	8F-	8A-	4c-	8d-
ii7	8FF	8D-	8F-	.	16e-
.	.	.	.	.	16f-
=9	=9	=9	=9	=9	=9
V	4BB-	4G-	8G-	4c-	2d-
.	.	.	8E-	.	.
V7	4BB-	4GG-	4F-	4B-	.
I;	2EE-;	2C-;	2E-;	2G-;	2c-;
=10	=10	=10	=10	=10	=10
I	4EE-	8c-	4c-	4e-	4g-
.	.	8B--	.	.	.
vi7	4CC	8A-	4c-	4e-	4g-
.	.	8G-	.	.	.
IV	4AA-	8F-	4c-	4f-	4a-
.	.	8E-	.	.	.
ii	4FF	8D-	4d-	8f-	4a-
.	.	8C-	.	8e-	.
=11	=11	=11	=11	=11	=11
viiob/vi	4BB	8BB-	8G	4d-	4b-
.	.	8AA-	8A-	.	.
V/vi	8GG	8GG	8B-	4e-	8b-
V/vi	8GG	8EE-	8G	.	16cc-
.	.	.	.	.	16dd-
vi;	2CC;	2AA-;	2A-;	2e-;	2cc-;
=12	=12	=12	=12	=12	=12
I	4EE-	8C-	4E-	4c-	4g-
.	.	8BB--	.	.	.
vi7	4CC	8AA-	4E-	4c-	8g-
.	.	8GG-	.	.	16a-
.	.	.	.	.	16b--
IV	8AA-	8FF-	8F-	8c-	8a-
V	8BB-	8GG-	8D-	8B-	8g-
IVb	8AA-	8AA-	8C-	4c-	8f-
Ic	8EE-	8GG-	8G-	.	8e-
=13	=13	=13	=13	=13	=13
ii7b	4FF	4FF-	4A-	4c-	8d-
.	.	.	.	.	16e-
.	.	.	.	.	16f-
V	4BB-	4GG-	8G-	4B-	4d-
.	.	.	8F-	.	.
I;	2EE-;	2C-;	2E-;	2G-;	2c-;
==	==	==	==	==	==
*-	*-	*-	*-	*-	*-
!!chor2scor: -l 2 -s 0.6 -o %b.pmx
!!!YEC: Copyright 1994, David Huron
!!!YEC: Changes/Additions 2001 by Craig Stuart Sapp
!!!YEN: United States of America
!!!SMA: 371 Bach Chorales, edited by Ludwig Erk, C.F. Peters
!!!PDT: 1850, 1865
!!!ONB: Harmony and Root analysis done manually
